X:1
T:Title
%%score ( 1 2 ) ( 3 4 ) ( 5 6 )
L:1/8
Q:1/4=57
M:2/4
K:F
V:1 treble nm="Tubular Bells, Soprano"
V:2 treble 
V:3 treble nm="Drawbar Organ, Merry Christmas Bells Ringing"
V:4 treble 
V:5 bass nm="Choir Pad, Staff-1"
V:6 bass 
V:1
 z2 .A2 | z2 .c2 | z2 z .A | .[Ec]4 | z2 .A2 | z2 .c2 | z .F z2 | .[A,F]4 | c/d/e/[Bc]/ [Af][Ac] | %9
 [GB]/[Bd]/[Ac]/[GB]/ [FA]2 | [DG][CA] c/B/A/[B,G]/ | [A,F][B,F] [A,F]2- | [A,F]2 z2 |] %13
V:2
 [FA][CA] F/-[Fd]/[Cc] | [FA][CA] E/-[EB]/[CG] | [CE]/[EG]/[EG]/[GB]/ [FA]F/-[Fc]/ | x4 | %4
 [FA][CA] F/-[Fd]/[Cc] | [FA][CA] E/-[EB]/[CG] | [DF]C/-[C^F]/ [B,G]/[DB]/[CA]/[B,G]/ | x4 | %8
 E2 z2 | x4 | z2 C2 | x4 | x4 |] %13
V:3
 z2 .A2 | z2 .c2 | E/G/[EG]/d/ [FA][FA]/c/ | [Ec][eg]/[df]/ [ce]/[Bd]/[Ac]/.[GB]/ | z2 .A2 | %5
 z2 .c2 | [DF][DF]/^F/ D/-[DB]/A/G/ | [A,F][fa]/[cg]/ [Af]2 | [Ge]>c fc | B/d/c/B/ [FA]2 | %10
 [DG][DA] c/B/A/G/ | [CF][CE] [CF]2- | [CF]2 z2 |] %13
V:4
 [FA][FA] F/-[F-d]/[Fc] | [FA][FA] E/-[E-B]/[EG] | x4 | x4 | [FA][FA] F/-[F-d]/[Fc] | %5
 [FA][FA] E/-[E-B]/[EG] | z2 .G[B,E] | x4 | z2 F2 | E2 z2 | z2 D2 | x4 | x4 |] %13
V:5
 [A,C]4 | [F,A,C][C,A,C] [G,B,C][C,B,C] | [G,B,C][C,B,C] [F,A,C][C,A,C] | .[C,G,B,C]4 | [A,C]4 | %5
w: By~Hermann~Kotzschmar~(1829\-1909)|||||
 [F,A,C][C,A,C] [G,C][C,C] | [D,A,][C,A,] [B,,G,]/G,,/C, | .[F,,F,]2[K:treble] [A,F]/[F,C]/[A,F] | %8
w: |||
 .B,2 .A,2 | B,/C/B,/C/ [F,A,][D,D] | [B,,G,][A,,^F,] G,-[B,,G,] | [C,A,][C,B,] [F,A,]2- | %12
w: ||||
 [F,A,]2 z2 |] %13
w: |
V:6
 F,C, G,C, | x4 | x4 | x4 | F,C, F,C, | x4 | x4 | x2[K:treble] x2 | %8
 C,/-[C,-C]/[C,B,]/C/ C,/-[C,-C]/[C,A,]/C/ | C,2 z2 | z2 .G,,2 | x4 | x4 |] %13

